X:1
T:Title
%%score { ( 1 3 ) | ( 2 4 ) }
L:1/8
Q:1/4=100
M:4/4
K:Bb
V:1 treble nm="Grand Piano"
V:3 treble 
V:2 bass 
V:4 bass 
V:1
 [DF]2 [EG][EA] [DB]2 [Ec][DB] | [EB]2 [EG]2 [DB]4 | [DF][DF][EG][EA] [DB]2 [Fc][Fd] | %3
w: O.~R.~Barrows * * * * *|||
 [Fc]2 [=EG]2 [Fc]4 | [Fd]2 [Fc][DB] [DF]2 [DB][Ec] | [Fd]2 [Ge]2 [Fd]4 | %6
w: |||
 [Gc][GB][FA][EG] [DF]2 [FB][Fd] | [Fc]2 [Ec]2 [B,DB]4 | ddBG F2 GA | B2 B2 z4 | ddBG F2 [FB][Fd] | %11
w: |||||
 c2 c2 c2 e2[K:bass] | [Fd][Fd][Ec][DB] [DF]2 [FB][Fc] | d2 e2 z4 | %14
w: |||
 [Gc][GB][FA][EG] [DF]2 [FB][Fd] | c2 c2 z4 |] %16
w: ||
V:2
 [B,,B,]2 [E,B,][B,,F,] [B,,F,]2 [A,,F,][B,,F,] | [E,G,]2 [E,B,]2 [B,,B,]4 | %2
 [B,,B,][B,,B,][E,B,][C,F,] [B,,F,]2 [F,A,][B,,B,] | [C,A,]2 [C,B,]2 [F,,A,]4 | %4
 [B,,B,]2 [B,,B,][B,,B,] [B,,B,]2 [B,,B,][B,,B,] | [B,,B,]2 [B,,B,]2 [B,,B,]4 | %6
 [E,B,][E,B,][E,B,][E,B,] [B,,B,]2 [D,B,][B,,B,] | [F,A,]2 [F,A,]2 B,,4 | %8
 FFDE D2[K:bass] [F,E][F,E] | [B,,F,][B,,F,][E,G,E][E,G,] [B,,F,]4 | %10
 FFDE D2[K:bass] [D,F,][B,,A,] | z4 [A,F]4 | [B,,B,][B,,B,][B,,B,][B,,B,] [B,,B,]2 [D,B,][F,A,] | %13
 [B,,B,][B,,B,][B,,B,][B,,B,] [B,,B,]4 | [E,B,][E,B,][E,B,][E,B,] [B,,B,]2 [D,B,][B,,B,] | %15
 [F,A,E][F,B,][F,CE]F, [B,,F,]4 |] %16
V:3
 x8 | x8 | x8 | x8 | x8 | x8 | x8 | x8 | x8 | DD z E [DB]4 | x8 | FF=EE z E, z[K:bass] C, | x8 | %13
 FFGG [Fd]4 | x8 | z E z E [DB]4 |] %16
V:4
 x8 | x8 | x8 | x8 | x8 | x8 | x8 | x8 | x6[K:bass] x2 | x8 | x6[K:bass] x2 | %11
 [C,A,][C,A,][C,B,][C,B,] .F,2 .D,2 | x8 | x8 | x8 | x8 |] %16

